X:1
T:3a. Kurz ist der Schmerz, und ewig ist die Freude.
T:Kurz ist der Schmerz, und ewig ist die Freude.
T:Ludwig van Beethoven 
C:Ludwig van BeethovenComponirt für Naue, am 23. November 1813.
%%score [ 1 2 3 ]
L:1/8
M:3/4
K:Ab
V:1 treble nm="1. Stimme."
V:2 treble nm="2. Stimme."
V:3 treble nm="3. Stimme."
V:1
"^Kanon 1"!p! c2 | z2 c2 c2 | =B2 z2 _B2 | =A2 z2 _A2 | (A2 G) z z c | !>!f4 e2 | !>!e4 =d2 | %7
w: Kurz|ist der|Schmerz, der|Schmerz, der|Schmerz, _ und|e- wig,|e- wig,|
!f! g3 g f =e | g2 f2 z2 |!p! F2 z2 E E | =D2 z2 _D2 | C2 z2 =B,2 | C3 z _B2 | !>!=A4 A2 | %14
w: e- wig ist die|Freu- de.|Kurz ist der|Schmerz, der|Schmerz, der|Schmerz, und|e- wig,|
 !>!B4 B,2 |!f! B,3 B, C C | F2 F2 |: z2 |!p! A2 z2 G G | F2 z2 F2 | F2 z2 F2 | (F2 =E) z z2 | %22
w: e- wig,|e- wig ist die|Freu- de.||Kurz ist der|Schmerz, der|Schmerz, der|Schmerz, *|
 z c !>!c2 c2 | !>!c4 B2 |!f! B3 B =A G | B2 =A2!p! c2 | z2 c2 c2 | =B2 z2 _B2 | =A2 z2 _A2 | %29
w: und e- wig,|e- wig,|e- wig ist die|Freu- de. Kurz|ist der|Schmerz, der|Schmerz, der|
 (A2 G) z z c | !>!f4 e2 | !>!e4 =d2 |!f! g3 g f =e | g2 f2 z2 |!p! F2 z2 E E | =D2 z2 _D2 | %36
w: Schmerz, _ und|e- wig,|e- wig,|e- wig ist die|Freu- de.|Kurz ist der|Schmerz, der|
 C2 z2 =B,2 | C3 z _B2 | !>!=A4 A2 | !>!B4 B,2 |!f! B,3 B, C C | F2 F2 :| %42
w: Schmerz, der|Schmerz, und|e- wig,|e- wig,|e- wig ist die|Freu- de.|
[K:F][M:3/4]"^Kanon 2"[Q:1/4=120]"^Gehend." c2 z2 z2 | c2 z2 z2 | c z B z B B | B2 z2 _A2 | %46
w: Kurz,|kurz,|kurz, kurz, ist der|Schmerz, der|
 _A2 G3 G | c6- | c3 B c G | (B=A) A2 A B | (dc) c2 A A | (AB) B2 (d2- | d2 e4 | f6- | f3) e d =B | %55
w: Schmerz, e- wig,|e-|* wig ist die|Freu- * de, ist die|Freu- * de, ja die|Freu- * de e-|||* wig ist die|
 (c=B cd ec | de fd ef | gf ed cd | eg) f z z2 | z2 F2 z2 | z2 _E2 z2 | D z D z D D | C2 z2 C2 | %63
w: Freu- * * * * *|||* * de,|Kurz,|kurz,|kurz, kurz, ist der|Schmerz, der|
 =B,2 z2 F2 | E2 C3 C | G6- | G2 F2 F G | (BA) A2 G F | (FB,) B,2 (B,2- | B,2 C2 ^C2- | C2 D4- | %71
w: Schmerz, der|Schmerz, e- wig,|e-|* wig ist die|Freu- * de, ist die|Freu- * de, e-|||
 D3) E F D | C C C4- | C4- C C | c6- | c B c (d/e/) f F |: z2 _A2 z2 | z2 G2 z2 | F z F z F F | %79
w: * wig ist die|Freu- de, e-|* * wig,|e-|* wig ist die * Freu- de.|Kurz,|kurz,|kurz, kurz, ist der|
 E2 z2 F2 | F2 z2 =B,2 | C2 z2 z2 | z2 c3 c | f6- | f3 e f c | (_ed) d2 z2 | (G4 A2- | A4 =B2- | %88
w: Schmerz, der|Schmerz, der|Schmerz,|e- wig,|e-|* wig ist die|Freu- * de,|e- *||
 B3) c A F | (ED EF GE | FG AF GA | BA GF EF | GB) A z z2 | c2 z2 z2 | c2 z2 z2 | c z B z B B | %96
w: * wig ist die|Freu- * * * * *|||* * de.|Kurz,|kurz,|kurz, kurz, ist der|
 B2 z2 _A2 | _A2 G3 G | c6- | c3 B c G | (B=A) A2 A B | (dc) c2 A A | (AB) B2 (d2- | d2 e4 | f6- | %105
w: Schmerz, der|Schmerz, e- wig,|e-|* wig ist die|Freu- * de, ist die|Freu- * de, ja die|Freu- * de e-|||
 f3) e d =B | (c=B cd ec | de fd ef | gf ed cd | eg) f z z2 | z2 F2 z2 | z2 _E2 z2 | D z D z D D | %113
w: * wig ist die|Freu- * * * * *|||* * de,|Kurz,|kurz,|kurz, kurz, ist der|
 C2 z2 C2 | =B,2 z2 F2 | E2 C3 C | G6- | G2 F2 F G | (BA) A2 G F | (FB,) B,2 (B,2- | B,2 C2 ^C2- | %121
w: Schmerz, der|Schmerz, der|Schmerz, e- wig,|e-|* wig ist die|Freu- * de, ist die|Freu- * de, e-||
 C2 D4- | D3) E F D | C C C4- | C4- C C | c6- | c B c (d/e/) f F :| %127
w: |* wig ist die|Freu- de, e-|* * wig,|e-|* wig ist die * Freu- de.|
V:2
 z2 | z6 | z6 | z6 | z6 | z6 | z6 | z6 | z2 z2!p! c2 | z2 c2 c2 | =B2 z2 _B2 | =A2 z2 _A2 | %12
w: ||||||||Kurz|ist der|Schmerz, der|Schmerz, der|
 (A2 G) z z c | !>!f4 e2 | !>!e4 =d2 |!f! g3 g f =e | g2 f2 |: z2 |!p! F2 z2 E E | =D2 z2 _D2 | %20
w: Schmerz, _ und|e- wig,|e- wig,|e- wig ist die|Freu- de.||Kurz ist der|Schmerz, der|
 C2 z2 =B,2 | C3 z _B2 | !>!=A4 A2 | !>!B4 B,2 |!f! B,3 B, C C | F2 F2 z2 |!p! A2 z2 G G | %27
w: Schmerz, der|Schmerz, und|e- wig,|e- wig,|e- wig ist die|Freu- de.|Kurz ist der|
 F2 z2 F2 | F2 z2 F2 | (F2 =E) z z2 | z c !>!c2 c2 | !>!c4 B2 |!f! B3 B =A G | B2 =A2!p! c2 | %34
w: Schmerz, der|Schmerz, der|Schmerz, *|und e- wig,|e- wig,|e- wig ist die|Freu- de. Kurz|
 z2 c2 c2 | =B2 z2 _B2 | =A2 z2 _A2 | (A2 G) z z c | !>!f4 e2 | !>!e4 =d2 |!f! g3 g f =e | g2 f2 :| %42
w: ist der|Schmerz, der|Schmerz, der|Schmerz, _ und|e- wig,|e- wig,|e- wig ist die|Freu- de.|
[K:F][M:3/4] z6 | z6 | z6 | z6 | z6 | z6 | z6 | z6 | z6 | z6 | z6 | z6 | z6 | z6 | z6 | z6 | z6 | %59
w: |||||||||||||||||
 c2 z2 z2 | c2 z2 z2 | c z B z B B | B2 z2 _A2 | _A2 G3 G | c6- | c3 B c G | (B=A) A2 A B | %67
w: Kurz,|kurz,|kurz, kurz, ist der|Schmerz, der|Schmerz, e- wig,|e-|* wig ist die|Freu- * de, ist die|
 (dc) c2 A A | (AB) B2 (d2- | d2 e4 | f6- | f3) e d =B | (c=B cd ec | de fd ef | gf ed cd | %75
w: Freu- * de, ja die|Freu- * de e-|||* wig ist die|Freu- * * * * *|||
 eg) f z z2 |: z2 F2 z2 | z2 _E2 z2 | D z D z D D | C2 z2 C2 | =B,2 z2 F2 | E2 C3 C | G6- | %83
w: * * de,|Kurz,|kurz,|kurz, kurz, ist der|Schmerz, der|Schmerz, der|Schmerz, e- wig,|e-|
 G2 F2 F G | (BA) A2 G F | (FB,) B,2 (B,2- | B,2 C2 ^C2- | C2 D4- | D3) E F D | C C C4- | C4- C C | %91
w: * wig ist die|Freu- * de, ist die|Freu- * de, e-|||* wig ist die|Freu- de, e-|* * wig,|
 c6- | c B c (d/e/) f F | z2 _A2 z2 | z2 G2 z2 | F z F z F F | E2 z2 F2 | F2 z2 =B,2 | C2 z2 z2 | %99
w: e-|* wig ist die * Freu- de.|Kurz,|kurz,|kurz, kurz, ist der|Schmerz, der|Schmerz, der|Schmerz,|
 z2 c3 c | f6- | f3 e f c | (_ed) d2 z2 | (G4 A2- | A4 =B2- | B3) c A F | (ED EF GE | FG AF GA | %108
w: e- wig,|e-|* wig ist die|Freu- * de,|e- *||* wig ist die|Freu- * * * * *||
 BA GF EF | GB) A z z2 | c2 z2 z2 | c2 z2 z2 | c z B z B B | B2 z2 _A2 | _A2 G3 G | c6- | %116
w: |* * de.|Kurz,|kurz,|kurz, kurz, ist der|Schmerz, der|Schmerz, e- wig,|e-|
 c3 B c G | (B=A) A2 A B | (dc) c2 A A | (AB) B2 (d2- | d2 e4 | f6- | f3) e d =B | (c=B cd ec | %124
w: * wig ist die|Freu- * de, ist die|Freu- * de, ja die|Freu- * de e-|||* wig ist die|Freu- * * * * *|
 de fd ef | gf ed cd | eg) f z z2 :| %127
w: ||* * de,|
V:3
 z2 | z6 | z6 | z6 | z6 | z6 | z6 | z6 | z6 | z6 | z6 | z6 | z6 | z6 | z6 | z6 | z4 |:!p! c2 | %18
w: |||||||||||||||||Kurz|
 z2 c2 c2 | =B2 z2 _B2 | =A2 z2 _A2 | (A2 G) z z c | !>!f4 e2 | !>!e4 =d2 |!f! g3 g f =e | %25
w: ist der|Schmerz, der|Schmerz, der|Schmerz, _ und|e- wig,|e- wig,|e- wig ist die|
 g2 f2 z2 |!p! F2 z2 E E | =D2 z2 _D2 | C2 z2 =B,2 | C3 z _B2 | !>!=A4 A2 | !>!B4 B,2 | %32
w: Freu- de.|Kurz ist der|Schmerz, der|Schmerz, der|Schmerz, und|e- wig,|e- wig,|
!f! B,3 B, C C | F2 F2 z2 |!p! A2 z2 G G | F2 z2 F2 | F2 z2 F2 | (F2 =E) z z2 | z c !>!c2 c2 | %39
w: e- wig ist die|Freu- de.|Kurz ist der|Schmerz, der|Schmerz, der|Schmerz, *|und e- wig,|
 !>!c4 B2 |!f! B3 B =A G | B2 =A2 :|[K:F][M:3/4] z6 | z6 | z6 | z6 | z6 | z6 | z6 | z6 | z6 | z6 | %52
w: e- wig,|e- wig ist die|Freu- de.|||||||||||
 z6 | z6 | z6 | z6 | z6 | z6 | z6 | z6 | z6 | z6 | z6 | z6 | z6 | z6 | z6 | z6 | z6 | z6 | z6 | %71
w: |||||||||||||||||||
 z6 | z6 | z6 | z6 | z6 |: c2 z2 z2 | c2 z2 z2 | c z B z B B | B2 z2 _A2 | _A2 G3 G | c6- | %82
w: |||||Kurz,|kurz,|kurz, kurz, ist der|Schmerz, der|Schmerz, e- wig,|e-|
 c3 B c G | (B=A) A2 A B | (dc) c2 A A | (AB) B2 (d2- | d2 e4 | f6- | f3) e d =B | (c=B cd ec | %90
w: * wig ist die|Freu- * de, ist die|Freu- * de, ja die|Freu- * de e-|||* wig ist die|Freu- * * * * *|
 de fd ef | gf ed cd | eg) f z z2 | z2 F2 z2 | z2 _E2 z2 | D z D z D D | C2 z2 C2 | =B,2 z2 F2 | %98
w: ||* * de,|Kurz,|kurz,|kurz, kurz, ist der|Schmerz, der|Schmerz, der|
 E2 C3 C | G6- | G2 F2 F G | (BA) A2 G F | (FB,) B,2 (B,2- | B,2 C2 ^C2- | C2 D4- | D3) E F D | %106
w: Schmerz, e- wig,|e-|* wig ist die|Freu- * de, ist die|Freu- * de, e-|||* wig ist die|
 C C C4- | C4- C C | c6- | c B c (d/e/) f F | z2 _A2 z2 | z2 G2 z2 | F z F z F F | E2 z2 F2 | %114
w: Freu- de, e-|* * wig,|e-|* wig ist die * Freu- de.|Kurz,|kurz,|kurz, kurz, ist der|Schmerz, der|
 F2 z2 =B,2 | C2 z2 z2 | z2 c3 c | f6- | f3 e f c | (_ed) d2 z2 | (G4 A2- | A4 =B2- | B3) c A F | %123
w: Schmerz, der|Schmerz,|e- wig,|e-|* wig ist die|Freu- * de,|e- *||* wig ist die|
 (ED EF GE | FG AF GA | BA GF EF | GB) A z z2 :| %127
w: Freu- * * * * *|||* * de.|

